; generated by PrusaSlicer 2.6.0+win64 on 2023-07-28 at 15:32:51 UTC

; 

; external perimeters extrusion width = 0.40mm
; perimeters extrusion width = 0.40mm
; infill extrusion width = 0.40mm
; solid infill extrusion width = 0.40mm
; top infill extrusion width = 0.40mm
; support material extrusion width = 0.40mm
; first layer extrusion width = 0.42mm

M73 P0 R101
M201 X1000 Y1000 Z200 E5000 ; sets maximum accelerations, mm/sec^2
M203 X200 Y200 Z12 E120 ; sets maximum feedrates, mm / sec
M204 S1250 T1250 ; sets acceleration (S) and retract acceleration (R), mm/sec^2
M205 X5.00 Y5.00 Z0.40 E4.50 ; sets the jerk limits, mm/sec
M205 S0 T0 ; sets the minimum extruding and travel feed rate, mm/sec
;TYPE:Custom
G90 ; use absolute coordinates
M83 ; extruder relative mode
;M104 S150 ; set temporary nozzle temp to prevent oozing during homing
M140 S60 ; set final bed temp
M190 S60 ; wait for bed temp to stabilize
G4 S30 ; allow partial nozzle warmup
G28 ; home all axis and restore leveling
G29
M500
M501
M420 S1 Z5
G1 Z50 F240
G1 X2.0 Y10 F3000
M104 S205 ; set final nozzle temp
M109 S205 ; wait for nozzle temp to stabilize
G1 Z0.28 F240
G92 E0
G1 X2.0 Y140 E10 F1500 ; prime the nozzle
G1 X2.3 Y140 F5000
G92 E0
G1 X2.3 Y10 E10 F1200 ; prime the nozzle
G92 E0
M221 S95
M92 E424 ;
G21 ; set units to millimeters
G90 ; use absolute coordinates
M83 ; use relative distances for extrusion
; Filament gcode
M107
;LAYER_CHANGE
;Z:0.2
;HEIGHT:0.2
;BEFORE_LAYER_CHANGE
G92 E0
;0.2


G1 E-1.4 F2400
G1 Z.5 F300
;AFTER_LAYER_CHANGE
;0.2
G1 X90.045 Y104.356 F3000
G1 Z.2 F300
G1 E1.7 F1800
;TYPE:Skirt/Brim
;WIDTH:0.42
G1 F900
G1 X90.857 Y103.692 E.03239
G1 X91.932 Y103.186 E.03669
G1 X93.095 Y102.969 E.03654
G1 X117.809 Y101.517 E.76458
G1 X120.165 Y101.708 E.073
G1 X122.431 Y102.199 E.07161
G1 X124.552 Y102.951 E.0695
G1 X126.541 Y103.956 E.06882
G1 X128.485 Y105.276 E.07257
G1 X130.232 Y106.834 E.07229
G1 X131.889 Y108.786 E.07908
G1 X133.063 Y110.632 E.06756
G1 X133.423 Y111.685 E.03437
G1 X133.498 Y112.717 E.03196
G1 X133.284 Y113.834 E.03512
G1 X132.789 Y114.859 E.03515
G1 X131.517 Y116.707 E.06929
G1 X130.225 Y118.172 E.06033
G1 X128.847 Y119.435 E.05773
G1 X127.132 Y120.682 E.06549
G1 X124.967 Y121.864 E.07618
G1 X122.482 Y122.788 E.08188
G1 X121.168 Y123.113 E.0418
G1 X119.823 Y123.339 E.04212
G1 X117.235 Y123.481 E.08005
G1 X92.667 Y121.986 E.76016
G1 X91.652 Y121.715 E.03245
M73 P0 R100
G1 X90.819 Y121.284 E.02897
G1 X90.074 Y120.675 E.02972
G1 X89.475 Y119.92 E.02976
G1 X88.96 Y118.803 E.03799
G1 X88.751 Y117.64 E.03649
G1 X88.757 Y107.258 E.32064
G1 X88.961 Y106.195 E.03343
G1 X89.41 Y105.184 E.03416
G1 X90.009 Y104.404 E.03037
G1 X90.305 Y104.631 F3000
G1 F900
G1 X91.066 Y104.006 E.03041
G1 X92.05 Y103.545 E.03356
G1 X93.118 Y103.345 E.03356
G1 X117.806 Y101.894 E.76378
G1 X120.11 Y102.081 E.07139
G1 X122.331 Y102.562 E.07018
G1 X124.404 Y103.298 E.06794
G1 X126.347 Y104.279 E.06722
G1 X128.252 Y105.573 E.07112
G1 X129.965 Y107.101 E.07089
G1 X131.505 Y108.902 E.07318
G1 X132.726 Y110.8 E.0697
G1 X133.063 Y111.812 E.03294
G1 X133.112 Y112.827 E.03138
G1 X132.885 Y113.83 E.03176
G1 X132.394 Y114.783 E.03311
G1 X131.218 Y116.476 E.06366
G1 X129.954 Y117.91 E.05904
G1 X128.54 Y119.198 E.05907
G1 X126.883 Y120.394 E.06311
G1 X124.813 Y121.52 E.07278
G1 X122.38 Y122.425 E.08017
G1 X121.09 Y122.744 E.04104
G1 X119.773 Y122.966 E.04125
G1 X117.264 Y123.105 E.07761
G1 X92.929 Y121.639 E.75292
G1 X91.927 Y121.414 E.03172
G1 X91.112 Y121.023 E.02792
G1 X90.384 Y120.451 E.02859
G1 X89.79 Y119.714 E.02923
G1 X89.322 Y118.695 E.03463
G1 X89.127 Y117.622 E.03368
G1 X89.133 Y107.291 E.31906
G1 X89.322 Y106.303 E.03107
G1 X89.736 Y105.375 E.03138
G1 X90.269 Y104.679 E.02707
G1 X90.567 Y104.905 F3000
G1 F900
G1 X91.274 Y104.32 E.02834
G1 X92.168 Y103.903 E.03047
G1 X93.141 Y103.722 E.03057
G1 X117.804 Y102.271 E.76301
G1 X120.054 Y102.454 E.06972
G1 X122.231 Y102.926 E.0688
G1 X124.255 Y103.644 E.06633
G1 X126.152 Y104.602 E.06563
G1 X128.02 Y105.87 E.06973
G1 X129.699 Y107.367 E.06947
G1 X131.203 Y109.127 E.0715
G1 X132.389 Y110.969 E.06766
G1 X132.702 Y111.934 E.03133
G1 X132.725 Y112.904 E.02997
G1 X132.493 Y113.799 E.02855
G1 X131.977 Y114.741 E.03317
G1 X130.89 Y116.283 E.05827
G1 X129.649 Y117.683 E.05778
G1 X128.111 Y119.06 E.06376
G1 X126.684 Y120.073 E.05405
G1 X124.658 Y121.177 E.07126
G1 X122.279 Y122.061 E.07838
G1 X119.884 Y122.57 E.07562
G1 X117.398 Y122.73 E.07694
G1 X92.962 Y121.264 E.75604
G1 X92.056 Y121.06 E.02868
M73 P1 R100
G1 X91.311 Y120.703 E.02551
G1 X90.65 Y120.184 E.02596
G1 X90.106 Y119.507 E.02682
G1 X89.683 Y118.587 E.03127
G1 X89.503 Y117.585 E.03144
G1 X89.505 Y107.369 E.31551
G1 X89.684 Y106.411 E.0301
G1 X90.042 Y105.597 E.02746
G1 X90.531 Y104.953 E.02497
G1 X90.829 Y105.178 F3000
G1 F900
G1 X91.483 Y104.634 E.02627
G1 X92.286 Y104.261 E.02734
G1 X93.164 Y104.098 E.02758
G1 X117.802 Y102.648 E.76224
G1 X119.998 Y102.827 E.06805
G1 X122.131 Y103.29 E.06741
G1 X124.107 Y103.991 E.06475
G1 X125.958 Y104.925 E.06403
G1 X127.788 Y106.167 E.06831
G1 X129.432 Y107.634 E.06805
G1 X130.901 Y109.353 E.06983
G1 X132.052 Y111.138 E.0656
G1 X132.331 Y112.001 E.02801
G1 X132.333 Y112.989 E.03051
G1 X132.072 Y113.822 E.02696
G1 X131.456 Y114.857 E.0372
G1 X130.269 Y116.445 E.06123
G1 X129.096 Y117.699 E.05303
G1 X127.762 Y118.855 E.05452
G1 X126.254 Y119.897 E.05661
G1 X124.104 Y121.01 E.07477
G1 X122.025 Y121.741 E.06806
G1 X119.672 Y122.218 E.07415
G1 X117.276 Y122.351 E.07411
G1 X92.995 Y120.888 E.75125
G1 X92.185 Y120.705 E.02565
G1 X91.448 Y120.344 E.02535
G1 X90.841 Y119.841 E.02435
G1 X90.374 Y119.225 E.02387
G1 X90.009 Y118.36 E.029
G1 X89.876 Y117.492 E.02712
G1 X89.881 Y107.394 E.31187
G1 X90.045 Y106.519 E.02749
G1 X90.366 Y105.79 E.0246
G1 X90.792 Y105.226 E.02183
G1 X91.095 Y105.469 F3000
G1 F900
G1 X91.211 Y105.324 E.00573
G1 X91.793 Y104.887 E.02248
G1 X92.453 Y104.604 E.02218
G1 X93.186 Y104.474 E.02299
G1 X117.799 Y103.026 E.76146
G1 X119.942 Y103.2 E.0664
G1 X122.031 Y103.653 E.06602
G1 X123.958 Y104.338 E.06316
G1 X125.763 Y105.248 E.06243
G1 X127.555 Y106.464 E.06688
G1 X129.165 Y107.9 E.06663
G1 X130.598 Y109.578 E.06815
G1 X131.714 Y111.306 E.06353
G1 X131.974 Y112.163 E.02766
G1 X131.934 Y113.065 E.02788
G1 X131.657 Y113.805 E.0244
G1 X130.865 Y115.055 E.0457
G1 X129.836 Y116.371 E.05159
G1 X128.555 Y117.689 E.05676
G1 X127.217 Y118.794 E.05359
G1 X125.824 Y119.715 E.05157
G1 X123.772 Y120.74 E.07084
G1 X121.576 Y121.471 E.07148
G1 X119.278 Y121.885 E.07211
G1 X117.282 Y121.974 E.06171
G1 X93.028 Y120.512 E.75042
G1 X92.314 Y120.351 E.0226
G1 X91.651 Y120.026 E.0228
G1 X91.115 Y119.581 E.02152
G1 X90.7 Y119.035 E.02118
G1 X90.37 Y118.252 E.02624
G1 X90.252 Y117.457 E.02482
G1 X90.258 Y107.419 E.31001
G1 X90.406 Y106.627 E.02488
G1 X90.715 Y105.941 E.02324
G1 X91.057 Y105.516 E.01685
; printing object 3DBenchy.stl id:0 copy 0
G1 E-1.4 F2400
G1 Z.7 F300
G1 X127.983 Y113.635 F3000
G1 Z.2 F300
G1 E1.7 F1800
;TYPE:Perimeter
;WIDTH:0.419999
G1 F900
G1 X128.497 Y112.906 E.02755
G1 X128.782 Y112.456 E.01645
G1 X128.947 Y112.04 E.01382
G1 X129.018 Y111.591 E.01404
G1 X129.156 Y111.786 E.00738
G1 X129.527 Y112.42 E.02269
G1 X129.513 Y112.624 E.00632
G1 X129.097 Y113.314 E.02488
G1 X128.604 Y114.009 E.02632
G1 X128.344 Y113.791 E.01048
G1 X128.038 Y113.658 E.0103
G1 E-1.4 F2400
G1 Z.7 F300
G1 X129.166 Y112.5 F3000
G1 Z.2 F300
G1 E1.7 F1800
;WIDTH:0.388916
G1 F900
G1 X128.881 Y112.981 E.01584
;WIDTH:0.389762
G1 X128.534 Y113.482 E.01731
G1 E-1.4 F2400
G1 Z.7 F300
G1 X93.137 Y107.436 F3000
G1 Z.2 F300
G1 E1.7 F1800
;WIDTH:0.419999
G1 F900
G1 X93.189 Y107.356 E.00295
G1 X93.429 Y107.283 E.00775
G1 X116.729 Y105.867 E.72092
G1 X117.567 Y105.844 E.02589
G1 X118.382 Y105.869 E.02518
G1 X119.287 Y105.954 E.02807
G1 X120.076 Y106.082 E.02469
G1 X120.932 Y106.275 E.0271
G1 X121.77 Y106.521 E.02697
G1 X122.725 Y106.877 E.03148
G1 X123.369 Y107.165 E.02179
G1 X124.325 Y107.673 E.03343
G1 X125.255 Y108.27 E.03413
G1 X125.828 Y108.693 E.022
G1 X126.806 Y109.542 E.04
G1 X125.311 Y109.548 E.04617
G1 X124.615 Y109.66 E.02177
G1 X124.3 Y109.804 E.0107
G1 X124.025 Y109.676 E.00937
G1 X123.606 Y109.566 E.01338
G1 X123.066 Y109.574 E.01668
G1 X122.701 Y109.685 E.01178
G1 X122.371 Y109.872 E.01171
G1 X122.063 Y110.14 E.01261
G1 X121.882 Y109.983 E.0074
G1 X121.485 Y109.741 E.01436
G1 X120.997 Y109.578 E.01589
G1 X120.54 Y109.542 E.01416
G1 X119.996 Y109.645 E.0171
G1 X119.634 Y109.807 E.01225
G1 X119.38 Y109.669 E.00893
G1 X119.046 Y109.578 E.01069
G1 X118.512 Y109.557 E.0165
G1 X117.994 Y109.707 E.01666
G1 X117.691 Y109.894 E.011
G1 X117.548 Y109.79 E.00546
G1 X117.207 Y109.648 E.01141
G1 X116.744 Y109.547 E.01464
G1 X116.208 Y109.601 E.01664
G1 X115.806 Y109.723 E.01297
G1 X115.43 Y109.963 E.01378
G1 X115.107 Y110.277 E.01391
G1 X114.992 Y110.466 E.00683
G1 X114.773 Y110.972 E.01703
G1 X114.75 Y111.173 E.00625
;WIDTH:0.395011
G1 X114.778 Y111.609 E.0126
;WIDTH:0.385973
G1 X114.858 Y112.043 E.0124
;WIDTH:0.422695
G1 X115.059 Y112.561 E.01728
G1 X114.553 Y112.464 E.01603
G1 X114.51 Y111.973 E.01533
;WIDTH:0.387741
G1 X114.471 Y111.64 E.00947
;WIDTH:0.386393
G1 X114.427 Y111.312 E.00931
;WIDTH:0.419999
G1 X114.384 Y110.983 E.01025
G1 X114.108 Y110.226 E.02488
G1 X113.602 Y109.406 E.02976
G1 X113.19 Y108.989 E.0181
G1 X112.904 Y108.772 E.01109
G1 X112.084 Y108.354 E.02843
G1 X111.591 Y108.227 E.01572
G1 X110.858 Y108.128 E.02284
G1 X109.262 Y108.094 E.0493
G1 X108.646 Y108.159 E.01913
G1 X107.939 Y108.475 E.02392
G1 X107.61 Y108.757 E.01338
G1 X107.352 Y108.537 E.01047
G1 X107.063 Y108.356 E.01053
G1 X106.345 Y108.062 E.02396
G1 X105.84 Y107.968 E.01586
G1 X105.053 Y107.939 E.02432
G1 X104.401 Y108.019 E.02029
G1 X104.047 Y108.113 E.01131
G1 X103.309 Y108.446 E.02501
G1 X103.108 Y108.322 E.00729
G1 X102.634 Y108.144 E.01564
G1 X102.284 Y108.104 E.01088
G1 X99.042 Y108.114 E.10013
G1 X98.259 Y108.074 E.02421
G1 X97.924 Y108.139 E.01054
G1 X97.426 Y108.319 E.01635
G1 X97.134 Y108.528 E.01109
G1 X96.968 Y108.407 E.00634
G1 X96.656 Y108.24 E.01093
G1 X95.956 Y108.02 E.02266
G1 X94.973 Y107.938 E.03046
G1 X94.174 Y108.028 E.02483
G1 X93.705 Y108.191 E.01533
G1 X93.07 Y108.468 E.0214
G1 X93.104 Y107.487 E.03032
G1 E-1.4 F2400
G1 Z.7 F300
G1 X126.578 Y109.919 F3000
G1 Z.2 F300
G1 E1.7 F1800
G1 F900
G1 X125.354 Y109.922 E.0378
G1 X124.739 Y110.016 E.01921
G1 X124.266 Y110.266 E.01652
G1 X123.937 Y110.052 E.01212
G1 X123.616 Y109.946 E.01044
G1 X123.143 Y109.943 E.01461
G1 X122.801 Y110.052 E.01109
G1 X122.387 Y110.342 E.01561
G1 X122.065 Y110.755 E.01617
G1 X121.858 Y110.464 E.01103
G1 X121.428 Y110.128 E.01685
G1 X120.932 Y109.95 E.01627
G1 X120.546 Y109.919 E.01196
G1 X120.011 Y110.035 E.01691
G1 X119.679 Y110.242 E.01208
G1 X119.234 Y110.016 E.01541
G1 X118.808 Y109.927 E.01344
G1 X118.417 Y109.965 E.01213
G1 X118.018 Y110.113 E.01314
G1 X117.687 Y110.4 E.01353
G1 X117.368 Y110.121 E.01309
G1 X117.074 Y110.001 E.00981
G1 X116.731 Y109.924 E.01086
G1 X116.259 Y109.975 E.01466
G1 X115.972 Y110.062 E.00926
G1 X115.643 Y110.274 E.01209
G1 X115.412 Y110.499 E.00996
G1 X115.207 Y110.881 E.01339
G1 X115.113 Y111.208 E.01051
G1 X115.121 Y111.592 E.01186
G1 X115.191 Y111.906 E.00994
G1 X115.414 Y112.427 E.0175
G1 X115.873 Y113.234 E.02867
G1 X115.765 Y113.431 E.00694
G1 X115.173 Y113.022 E.02222
G1 X114.83 Y112.893 E.01132
G1 X114.163 Y112.818 E.02073
G1 X114.172 Y112.312 E.01563
G1 X114.131 Y111.694 E.01913
G1 X114.025 Y111.099 E.01867
G1 X113.782 Y110.416 E.02239
G1 X113.422 Y109.799 E.02206
G1 X113.274 Y109.607 E.00749
G1 X112.719 Y109.101 E.0232
G1 X112.19 Y108.803 E.01875
G1 X111.536 Y108.6 E.02115
G1 X110.85 Y108.505 E.02139
G1 X109.254 Y108.471 E.0493
G1 X108.734 Y108.525 E.01615
G1 X108.243 Y108.741 E.01657
G1 X107.923 Y108.965 E.01206
G1 X107.656 Y109.39 E.0155
G1 X107.326 Y109.004 E.01568
G1 X106.953 Y108.722 E.01444
G1 X106.463 Y108.495 E.01668
G1 X105.816 Y108.344 E.02052
G1 X105.098 Y108.314 E.02219
G1 X104.446 Y108.393 E.02028
G1 X104.194 Y108.461 E.00806
G1 X103.632 Y108.698 E.01884
G1 X103.298 Y108.915 E.0123
G1 X102.911 Y108.643 E.01461
G1 X102.572 Y108.516 E.01118
G1 X102.285 Y108.481 E.00893
G1 X99.043 Y108.491 E.10013
G1 X98.282 Y108.45 E.02354
G1 X97.721 Y108.603 E.01796
G1 X97.483 Y108.722 E.00822
G1 X97.176 Y109.023 E.01328
G1 X96.524 Y108.593 E.02412
G1 X95.913 Y108.395 E.01984
G1 X95.01 Y108.313 E.028
G1 X94.155 Y108.427 E.02664
G1 X93.497 Y108.669 E.02165
G1 X93.017 Y108.951 E.01719
G1 X92.692 Y109.241 E.01345
G1 X92.694 Y107.633 E.04966
G1 X92.808 Y107.212 E.01347
G1 X93.063 Y106.984 E.01056
G1 X93.388 Y106.908 E.01031
G1 X116.712 Y105.49 E.72167
G1 X117.568 Y105.467 E.02645
G1 X118.406 Y105.492 E.02589
G1 X119.334 Y105.58 E.02879
G1 X120.147 Y105.711 E.02543
G1 X121.027 Y105.91 E.02786
G1 X121.889 Y106.163 E.02774
G1 X122.868 Y106.528 E.03227
G1 X123.534 Y106.825 E.02252
G1 X124.515 Y107.347 E.03432
G1 X125.478 Y107.966 E.03536
G1 X126.07 Y108.404 E.02274
G1 X126.815 Y109.028 E.03001
G1 X127.735 Y109.951 E.04025
G1 X127.537 Y109.921 E.00618
G1 X126.638 Y109.919 E.02776
G1 E-1.4 F2400
G1 Z.7 F300
G1 X92.512 Y107.007 F3000
G1 Z.2 F300
G1 E1.7 F1800
G1 F900
G1 X92.566 Y106.914 E.00332
G1 X92.886 Y106.647 E.01287
G1 X93.347 Y106.532 E.01467
G1 X116.696 Y105.113 E.72244
G1 X117.569 Y105.09 E.02697
G1 X118.429 Y105.116 E.02657
G1 X119.382 Y105.206 E.02956
G1 X120.219 Y105.341 E.02618
G1 X121.122 Y105.544 E.02858
G1 X122.008 Y105.805 E.02853
G1 X123.011 Y106.179 E.03306
G1 X123.7 Y106.486 E.0233
G1 X124.705 Y107.021 E.03516
G1 X125.615 Y107.599 E.03329
G1 X126.282 Y108.09 E.02558
G1 X127.054 Y108.735 E.03107
G1 X127.7 Y109.355 E.02765
G1 X128.06 Y109.747 E.01644
;WIDTH:0.425855
G1 X128.949 Y110.822 E.04375
;WIDTH:0.421772
G1 X129.404 Y111.467 E.02449
;WIDTH:0.419999
G1 X129.835 Y112.179 E.0257
G1 X129.903 Y112.406 E.00732
G1 X129.908 Y112.515 E.00337
G1 X129.859 Y112.781 E.00835
G1 X129.412 Y113.521 E.0267
G1 X128.608 Y114.657 E.04298
G1 X128.435 Y114.369 E.01038
G1 X128.241 Y114.185 E.00826
G1 X127.879 Y113.994 E.01264
G1 X127.332 Y113.904 E.01712
G1 X128.189 Y112.689 E.04592
G1 X128.458 Y112.264 E.01553
G1 X128.62 Y111.786 E.01559
G1 X128.629 Y111.365 E.01301
;WIDTH:0.424016
G1 X128.486 Y110.85 E.01668
;WIDTH:0.425855
G1 X128.257 Y110.573 E.01127
G1 X128.008 Y110.416 E.00923
;WIDTH:0.419999
G1 X127.537 Y110.298 E.015
G1 X125.518 Y110.294 E.06235
G1 X124.972 Y110.346 E.01694
G1 X124.523 Y110.54 E.01511
G1 X124.253 Y110.83 E.01224
G1 X124.073 Y110.603 E.00895
G1 X123.751 Y110.38 E.0121
G1 X123.386 Y110.303 E.01152
G1 X123.01 Y110.376 E.01183
G1 X122.731 Y110.547 E.01011
G1 X122.442 Y110.865 E.01327
G1 X122.204 Y111.319 E.01583
G1 X122.04 Y111.867 E.01767
G1 X121.809 Y111.094 E.02492
G1 X121.626 Y110.777 E.0113
G1 X121.327 Y110.506 E.01246
G1 X120.867 Y110.321 E.01531
G1 X120.416 Y110.314 E.01393
G1 X120.055 Y110.429 E.0117
G1 X119.778 Y110.67 E.01134
G1 X119.65 Y110.881 E.00762
G1 X119.562 Y110.73 E.0054
G1 X119.402 Y110.553 E.00737
G1 X119.089 Y110.364 E.01129
G1 X118.656 Y110.3 E.01352
G1 X118.364 Y110.377 E.00933
G1 X118.087 Y110.532 E.0098
G1 X117.675 Y110.987 E.01896
G1 X117.352 Y110.586 E.0159
G1 X117.118 Y110.42 E.00886
G1 X116.717 Y110.301 E.01292
G1 X116.31 Y110.348 E.01265
G1 X116.104 Y110.418 E.00672
G1 X115.717 Y110.72 E.01516
G1 X115.545 Y111.049 E.01147
G1 X115.486 Y111.327 E.00878
G1 X115.54 Y111.763 E.01357
G1 X115.742 Y112.241 E.01603
G1 X116.337 Y113.269 E.03668
G1 X116.098 Y113.609 E.01284
G1 X115.784 Y114.195 E.02053
G1 X115.702 Y114.017 E.00605
G1 X115.396 Y113.615 E.0156
G1 X114.975 Y113.342 E.0155
G1 X114.769 Y113.265 E.00679
G1 X114.211 Y113.19 E.01739
G1 X113.703 Y113.326 E.01624
G1 X113.766 Y112.92 E.01269
G1 X113.795 Y112.319 E.01858
G1 X113.759 Y111.754 E.01748
G1 X113.666 Y111.215 E.01689
G1 X113.456 Y110.607 E.01987
G1 X113.008 Y109.874 E.02653
G1 X112.534 Y109.43 E.02006
G1 X112.005 Y109.132 E.01875
G1 X111.48 Y108.973 E.01694
G1 X110.842 Y108.882 E.0199
G1 X109.246 Y108.848 E.0493
G1 X108.821 Y108.892 E.0132
G1 X108.322 Y109.124 E.017
G1 X108.131 Y109.311 E.00826
